Numix-Circle/48x48/apps/web-inbox.svg

<?xml version="1.0" encoding="UTF-8" standalone="no"?>
<svg
   xmlns:dc="http://purl.org/dc/elements/1.1/"
   xmlns:cc="http://creativecommons.org/ns#"
   xmlns:rdf="http://www.w3.org/1999/02/22-rdf-syntax-ns#"
   xmlns:svg="http://www.w3.org/2000/svg"
   xmlns="http://www.w3.org/2000/svg"
   xmlns:xlink="http://www.w3.org/1999/xlink"
   xmlns:sodipodi="http://sodipodi.sourceforge.net/DTD/sodipodi-0.dtd"
   xmlns:inkscape="http://www.inkscape.org/namespaces/inkscape"
   width="48"
   viewBox="0 0 13.546667 13.546667"
   height="48"
   id="svg2"
   version="1.1"
   inkscape:version="0.91 r13725"
   sodipodi:docname="web-inbox.svg">
  <metadata
     id="metadata331">
    <rdf:RDF>
      <cc:Work
         rdf:about="">
        <dc:format>image/svg+xml</dc:format>
        <dc:type
           rdf:resource="http://purl.org/dc/dcmitype/StillImage" />
        <dc:title />
      </cc:Work>
    </rdf:RDF>
  </metadata>
  <sodipodi:namedview
     pagecolor="#ffffff"
     bordercolor="#666666"
     borderopacity="1"
     objecttolerance="10"
     gridtolerance="10"
     guidetolerance="10"
     inkscape:pageopacity="0"
     inkscape:pageshadow="2"
     inkscape:window-width="1920"
     inkscape:window-height="1052"
     id="namedview329"
     showgrid="true"
     inkscape:zoom="10.403079"
     inkscape:cx="29.454646"
     inkscape:cy="33.336684"
     inkscape:window-x="0"
     inkscape:window-y="28"
     inkscape:window-maximized="1"
     inkscape:current-layer="layer3"
     showguides="true"
     inkscape:guide-bbox="true">
    <inkscape:grid
       type="xygrid"
       id="grid3308" />
  </sodipodi:namedview>
  <defs
     id="defs4">
    <linearGradient
       id="linearGradient4195">
      <stop
         id="stop4197"
         offset="0"
         style="stop-color:#706e6e;stop-opacity:1;" />
      <stop
         id="stop4199"
         offset="1"
         style="stop-color:#898989;stop-opacity:1;" />
    </linearGradient>
    <linearGradient
       inkscape:collect="always"
       xlink:href="#linearGradient4195"
       id="linearGradient4153"
       x1="-27"
       y1="13"
       x2="-24"
       y2="13"
       gradientUnits="userSpaceOnUse" />
  </defs>
  <g
     inkscape:groupmode="layer"
     id="layer1"
     inkscape:label="Shadow"
     sodipodi:insensitive="true">
    <path
       style="opacity:0.05;fill:#000000;fill-opacity:1;stroke:none"
       d="M 25,2 C 12.297451,2 2,12.297451 2,25 2,31.367153 4.6007106,37.116628 8.78125,41.28125 12.865755,44.99361 18.29568,47.25 24.25,47.25 c 12.702549,0 23,-10.297451 23,-23 0,-5.95432 -2.25639,-11.384245 -5.96875,-15.46875 C 37.116628,4.6007105 31.367153,2 25,2 z M 41.28125,8.78125 C 45.135604,12.894061 47.5,18.418655 47.5,24.5 c 0,12.702549 -10.297451,23 -23,23 C 18.418655,47.5 12.894061,45.135604 8.78125,41.28125 12.940939,45.4251 18.664604,48 25,48 37.702549,48 48,37.702549 48,25 48,18.664604 45.4251,12.940939 41.28125,8.78125 z"
       transform="scale(0.28222223,0.28222223)"
       id="path3978"
       inkscape:connector-curvature="0" />
    <path
       style="opacity:0.1;fill:#000000;fill-opacity:1;stroke:none"
       d="M 41.28125,8.78125 C 44.99361,12.865755 47.25,18.29568 47.25,24.25 c 0,12.702549 -10.297451,23 -23,23 -5.95432,0 -11.384245,-2.25639 -15.46875,-5.96875 C 12.894061,45.135604 18.418655,47.5 24.5,47.5 c 12.702549,0 23,-10.297451 23,-23 0,-6.081345 -2.364396,-11.605939 -6.21875,-15.71875 z"
       transform="scale(0.28222223,0.28222223)"
       id="path3976"
       inkscape:connector-curvature="0" />
    <path
       transform="matrix(4.3274074,0,0,3.2455556,117.19278,-35.348334)"
       d="m -24,13 a 1.5,2 0 1 1 -3,0 1.5,2 0 1 1 3,0 z"
       sodipodi:ry="2"
       sodipodi:rx="1.5"
       sodipodi:cy="13"
       sodipodi:cx="-25.5"
       id="path3952"
       style="opacity:0.2;fill:#000000;fill-opacity:1;stroke:none"
       sodipodi:type="arc" />
  </g>
  <g
     inkscape:groupmode="layer"
     id="layer2"
     inkscape:label="Base">
    <path
       sodipodi:type="arc"
       style="fill:url(#linearGradient4153);fill-opacity:1.0;stroke:none"
       id="path3942"
       sodipodi:cx="-25.5"
       sodipodi:cy="13"
       sodipodi:rx="1.5"
       sodipodi:ry="2"
       d="m -24,13 a 1.5,2 0 1 1 -3,0 1.5,2 0 1 1 3,0 z"
       transform="matrix(0,-4.3274075,3.2455556,0,-35.429918,-103.60974)" />
    <path
       style="opacity:0.1;fill:#000000;fill-opacity:1;stroke:none"
       d="M 40.03125 7.53125 C 43.74361 11.615755 46 17.04568 46 23 C 46 35.702549 35.702549 46 23 46 C 17.04568 46 11.615755 43.74361 7.53125 40.03125 C 11.709416 44.322508 17.537578 47 24 47 C 36.702549 47 47 36.702549 47 24 C 47 17.537578 44.322508 11.709416 40.03125 7.53125 z "
       transform="scale(0.28222223,0.28222223)"
       id="path4027" />
  </g>
  <g
     inkscape:groupmode="layer"
     id="layer3"
     inkscape:label="Symbol">
    <g
       id="g4225"
       style="opacity:0.1"
       transform="translate(0.28222228,2.0833333e-8)">
      <rect
         ry="0.099999994"
         rx="0.1"
         y="4.5155559"
         x="4.7977781"
         height="0.28222224"
         width="2.2577779"
         id="rect4209"
         style="fill:#000000;fill-opacity:1;stroke:none" />
      <rect
         style="fill:#000000;fill-opacity:1;stroke:none"
         id="rect4211"
         width="3.3866668"
         height="0.28222224"
         x="4.7977781"
         y="5.0800004"
         rx="0.1"
         ry="0.099999994" />
      <rect
         ry="0.099999994"
         rx="0.1"
         y="5.6444449"
         x="4.7977781"
         height="0.28222224"
         width="4.5155559"
         id="rect4213"
         style="fill:#000000;fill-opacity:1;stroke:none" />
      <path
         id="path4215"
         d="m 3.889869,9.877778 5.7700335,0 c 0.5015085,0 0.5000975,0 0.5000975,-0.4840111 l 0,-4.0315445 -3.3866665,-2.2577779 -3.3866668,2.2577779 0,4.0315445 c 10e-8,0.4840111 0.00141,0.4840111 0.5040477,0.4840111"
         inkscape:connector-curvature="0"
         style="fill:#000000;fill-opacity:1;fill-rule:nonzero;stroke:none"
         sodipodi:nodetypes="csscccsc" />
      <path
         id="path4217"
         d="m 9.659338,9.877778 -5.7700335,0 c -0.5026378,0 -0.5026378,0 -0.5026378,-0.4741334 l 0,-4.0414223 L 10.16,9.4036446 c 0,0.4741334 0,0.4741334 -0.4995331,0.4741334"
         inkscape:connector-curvature="0"
         style="fill:#000000;fill-opacity:1;fill-rule:nonzero;stroke:none"
         sodipodi:nodetypes="cssccc" />
      <path
         id="path4219"
         d="m 3.889869,9.877778 5.7700335,0 c 0.5015085,0 0.5000975,0 0.5000975,-0.4741334 l 0,-4.0414222 -6.7733333,4.0414222 c 0,0.4741334 0.00141,0.4741334 0.5040489,0.4741334"
         inkscape:connector-curvature="0"
         style="fill:#000000;fill-opacity:1;fill-rule:nonzero;stroke:none"
         sodipodi:nodetypes="cssccc" />
      <path
         transform="scale(0.28222223,0.28222223)"
         style="fill:#000000;fill-opacity:1;stroke:none"
         d="m 12,19 12,-8 12,8 z"
         id="path4221"
         inkscape:connector-curvature="0" />
      <path
         style="fill:#000000;fill-opacity:1;stroke:none"
         d="m 6.4911112,4.684889 -0.4233333,0.3951111 1.27,1.1288889 L 10.018889,3.9511112 9.5955557,3.5277779 7.3377779,5.5033335 z"
         id="path4223"
         inkscape:connector-curvature="0"
         sodipodi:nodetypes="ccccccc" />
    </g>
    <rect
       ry="0.099999994"
       rx="0.1"
       y="4.2333336"
       x="4.7977781"
       height="0.28222224"
       width="2.2577779"
       id="rect4248"
       style="fill:#000000;fill-opacity:1;stroke:none" />
    <rect
       style="fill:#000000;fill-opacity:1;stroke:none"
       id="rect4250"
       width="3.3866668"
       height="0.28222224"
       x="4.7977781"
       y="4.7977781"
       rx="0.1"
       ry="0.099999994" />
    <rect
       ry="0.099999994"
       rx="0.1"
       y="5.3622227"
       x="4.7977781"
       height="0.28222224"
       width="4.5155559"
       id="rect4252"
       style="fill:#000000;fill-opacity:1;stroke:none" />
    <path
       id="path59"
       d="m 3.889869,9.5955558 5.7700335,0 c 0.5015085,0 0.5000975,0 0.5000975,-0.4840111 l 0,-4.0315445 -3.3866665,-2.2577779 -3.3866668,2.2577779 0,4.0315445 c 10e-8,0.4840111 0.00141,0.4840111 0.5040477,0.4840111"
       inkscape:connector-curvature="0"
       style="fill:#4571d1;fill-opacity:1;fill-rule:nonzero;stroke:none"
       sodipodi:nodetypes="csscccsc" />
    <path
       id="path65"
       d="m 9.659338,9.5955558 -5.7700335,0 c -0.5026378,0 -0.5026378,0 -0.5026378,-0.4741334 l 0,-4.0414223 L 10.16,9.1214224 c 0,0.4741334 0,0.4741334 -0.4995331,0.4741334"
       inkscape:connector-curvature="0"
       style="fill:#31b9f6;fill-opacity:1;fill-rule:nonzero;stroke:none"
       sodipodi:nodetypes="cssccc" />
    <path
       id="path63"
       d="m 4.7969313,9.5955558 4.8629712,0 c 0.5015085,0 0.5000975,0 0.5000975,-0.4741334 l 0,-4.0414222 -6.491111,4.5155556"
       inkscape:connector-curvature="0"
       style="fill:#82d4fa;fill-opacity:1;fill-rule:nonzero;stroke:none"
       sodipodi:nodetypes="csscc" />
    <path
       style="fill:#3d65cb;fill-opacity:1;stroke:none"
       d="M 3.3866668,5.0800001 6.7733335,2.8222223 10.16,5.0800001 z"
       id="path4154"
       inkscape:connector-curvature="0" />
    <path
       style="fill:#e2e2e2;fill-opacity:1;stroke:none"
       d="m 6.4911112,4.4026668 -0.4233333,0.3951111 1.27,1.1288889 L 10.018889,3.668889 9.5955557,3.2455557 7.3377779,5.2211113 z"
       id="path4175"
       inkscape:connector-curvature="0"
       sodipodi:nodetypes="ccccccc" />
  </g>
</svg>

<svg xmlns="http://www.w3.org/2000/svg" width="48" viewBox="0 0 13.546667 13.546667" height="48">
 <defs>
  <linearGradient id="linearGradient4153" x1="-27" x2="-24" gradientUnits="userSpaceOnUse">
   <stop style="stop-color:#706e6e;stop-opacity:1"/>
   <stop offset="1" style="stop-color:#898989;stop-opacity:1"/>
  </linearGradient>
 </defs>
 <g>
  <path d="m 25 2 c -12.703 0 -23 10.297 -23 23 0 6.367 2.601 12.12 6.781 16.281 4.085 3.712 9.514 5.969 15.469 5.969 c 12.703 0 23 -10.297 23 -23 0 -5.954 -2.256 -11.384 -5.969 -15.469 c -4.165 -4.181 -9.914 -6.781 -16.281 -6.781 z m 16.281 6.781 c 3.854 4.113 6.219 9.637 6.219 15.719 c 0 12.703 -10.297 23 -23 23 c -6.081 0 -11.606 -2.364 -15.719 -6.219 4.16 4.144 9.883 6.719 16.219 6.719 12.703 0 23 -10.297 23 -23 0 -6.335 -2.575 -12.06 -6.719 -16.219 z" transform="scale(0.28222223,0.28222223)" style="fill:#000;opacity:0.05;fill-opacity:1;stroke:none"/>
  <path d="m 41.28 8.781 c 3.712 4.085 5.969 9.514 5.969 15.469 c 0 12.703 -10.297 23 -23 23 -5.954 0 -11.384 -2.256 -15.469 -5.969 c 4.113 3.854 9.637 6.219 15.719 6.219 c 12.703 0 23 -10.297 23 -23 0 -6.081 -2.364 -11.606 -6.219 -15.719 z" transform="scale(0.28222223,0.28222223)" style="fill:#000;opacity:0.1;fill-opacity:1;stroke:none"/>
  <path transform="matrix(4.3274074,0,0,3.2455556,117.19278,-35.348334)" d="m -24 13 a 1.5 2 0 1 1 -3 0 1.5 2 0 1 1 3 0 z" style="fill:#000;opacity:0.2;fill-opacity:1;stroke:none"/>
 </g>
 <g>
  <path d="m -24 13 a 1.5 2 0 1 1 -3 0 1.5 2 0 1 1 3 0 z" transform="matrix(0,-4.3274075,3.2455556,0,-35.429918,-103.60974)" style="fill:url(#linearGradient4153);fill-opacity:1;stroke:none"/>
  <path d="m 40.03 7.531 c 3.712 4.085 5.969 9.514 5.969 15.469 c 0 12.703 -10.297 23 -23 23 c -5.954 0 -11.384 -2.256 -15.469 -5.969 c 4.178 4.291 10.01 6.969 16.469 6.969 c 12.703 0 23 -10.297 23 -23 c 0 -6.462 -2.677 -12.291 -6.969 -16.469 z" transform="scale(0.28222223,0.28222223)" style="fill:#000;opacity:0.1;fill-opacity:1;stroke:none"/>
 </g>
 <g>
  <g transform="translate(0.28222228,2.0833333e-8)" style="opacity:0.1">
   <rect rx="0.1" y="4.516" x="4.798" height="0.282" width="2.258" style="fill:#000;fill-opacity:1;stroke:none"/>
   <rect width="3.387" height="0.282" x="4.798" y="5.08" rx="0.1" style="fill:#000;fill-opacity:1;stroke:none"/>
   <rect rx="0.1" y="5.644" x="4.798" height="0.282" width="4.516" style="fill:#000;fill-opacity:1;stroke:none"/>
   <path d="m 25 11 l -12 8 l 0 14.285 c 0 1.714 0.005 1.715 1.783 1.715 l 0.002 0 l 20.443 0 c 1.777 0 1.771 0 1.771 -1.715 l 0 -14.285 l -3.594 -2.395 l 3.094 -2.605 l -1.5 -1.5 l -3.352 2.932 l -6.648 -4.432 z" transform="matrix(0.28222223,0,0,0.28222223,-0.28222228,-2.0833333e-8)" style="fill:#000;fill-opacity:1;stroke:none;fill-rule:nonzero"/>
  </g>
  <g>
   <path d="m 3.89 9.596 5.77 0 c 0.502 0 0.5 0 0.5 -0.484 l 0 -4.03 -3.387 -2.258 -3.387 2.258 0 4.03 c 0 0.484 0 0.484 0.504 0.484" style="fill:#4571d1;fill-opacity:1;stroke:none;fill-rule:nonzero"/>
   <path d="m 9.659 9.596 -5.77 0 c -0.503 0 -0.503 0 -0.503 -0.474 l 0 -4.04 l 6.773 4.04 c 0 0.474 0 0.474 -0.5 0.474" style="fill:#31b9f6;fill-opacity:1;stroke:none;fill-rule:nonzero"/>
   <path d="m 4.797 9.596 4.863 0 c 0.502 0 0.5 0 0.5 -0.474 l 0 -4.04 -6.491 4.516" style="fill:#82d4fa;fill-opacity:1;stroke:none;fill-rule:nonzero"/>
   <path d="m 3.387 5.08 3.387 -2.258 3.387 2.258" style="fill:#3d65cb;fill-opacity:1;stroke:none"/>
   <path d="m 6.491 4.403 -0.423 0.395 1.27 1.129 l 2.681 -2.258 -0.423 -0.423 -2.258 1.976" style="fill:#e2e2e2;fill-opacity:1;stroke:none"/>
  </g>
 </g>
</svg>
